X:356
T:AIR XXI. Tweed-side.
B:Joseph Mitchell: "The Highland Fair" (1731)
Z:Jack Campin <http://www.purr.demon.co.uk/jack/jack.html>
M:3/4
L:1/8
K:G
 BA   |G2    D2    (E>F)|G3      A    G/A/B|TA4
 B>A  |G2    D2    (E>F)|G3      A    G/A/B| G4
 B>A  |G2    D2     E>F |G3      A    G/A/B|TA4
(G>A) |B2   (dB)   (A>G)|A/B/c  B2   (AG)  | G6|\
       B2   (B/c/d) cB  |AG     e2    c>B  |TA4
(B>c) |B/c/d c>B   (A>G)|F2    (G>A) (Bc)  | d4
 e/f/g|d2   (c>B)  (A>G)|c/d/e (d>c) (B>c) |TA4
(G>A) |B2   (dB)   (AG) |A2    (AE)  (FD)  | G4|]
